X:1
T:Title
%%score { ( 1 3 ) | ( 2 4 ) }
L:1/8
M:6/8
K:F
V:1 treble nm="Grand Piano"
V:3 treble 
V:2 bass 
V:4 bass 
V:1
 z3 z2[Q:1/4=100] A | ACD EFG | A2 B A2 A | [FA]GF EDE |[M:5/8] F-F- F3 |[M:1/8] F | %6
[M:3/4] [EG][EG] [EG] [EG]2 [EB] | AA A A2 c | =BB BB cd |[M:5/8] [Ec]-[Ec]- [Ec]3 |[M:1/8] c | %11
[M:3/4] cA [GB][Bd] [Ac][GB] | A2 c c2 c | [Ec][EG] [FA][DEB] [CEA][B,EG] | z C D C2 C | %15
 D[CE] [DF][DB] [DB]D | CF G A2 c | [Ec][EG] [FA][DEB] [CEA][B,EG] |[M:5/8] F2- [B,DF-] [A,CF]2 |] %19
V:2
 z3 z2 [F,C] | [F,C][F,A,][F,B,C] [F,G,C][F,A,C][F,B,C] | [F,CF]2 [F,DF] [F,CF]2 [F,CF] | %3
 [C,C][C,B,C][C,A,C] [C,G,C][C,B,C][C,B,C] |[M:5/8] [F,A,C]-[F,A,C]- [F,A,C]3 |[M:1/8] [F,A,C] | %6
[M:3/4] [C,C][C,C] [C,C] [C,C]2 [C,C] | [F,CF][F,CF] [F,CF] [F,CF]2 [F,A,F] | %8
 [G,D][G,D] [G,D][G,D] [G,E][G,F] |[M:5/8][K:bass] G,3 z2 |[M:1/8] [F,A,F] | %11
[M:3/4] [F,A,F][F,CF] [F,C][F,F] [F,F][F,C] | [F,CF]2 [F,A,F] [F,A,F]2 [F,A,F] | %13
 [C,G,][C,C] [C,C]C, C,C, | F,2 [F,B,] [F,A,]2 [F,A,] | %15
 [B,,F,B,][B,,F,] [B,,F,][B,,F,] [B,,F,][B,,F,B,] | [F,A,][F,A,C] [F,B,C] [F,CF]2 [F,A,F] | %17
 [C,C][C,C] [C,C]C, C,C, |[M:5/8] [F,,F,]2 [F,,F,] [F,,F,]2 |] %19
V:3
 x6 | x6 | x6 | x6 |[M:5/8] x5 |[M:1/8] x |[M:3/4] x6 | x6 | x6 |[M:5/8] z z2 B,2 |[M:1/8] x | %11
[M:3/4] x6 | x6 | x6 | [A,F]2 z2 z2 | x6 | x6 | x6 |[M:5/8] A,2 z z2 |] %19
V:4
 x6 | x6 | x6 | x6 |[M:5/8] x5 |[M:1/8] x |[M:3/4] x6 | x6 | x6 |[M:5/8][K:bass] C,-C,- C,3 | %10
[M:1/8] x |[M:3/4] x6 | x6 | x6 | x6 | x6 | x6 | x6 |[M:5/8] x5 |] %19

